X:1
T:Weidli-Juiz  Bb  ABAC
T:Annemarie Berchtold-Rymann (28.1.1965)
T:Dirigenten-Notiz  Edi Gasser
C:Unterwalden (CH)
%%partsbox
P:ABAC
M:2/4
R:Naturjodel
L:1/4
K:Bb 
[P:A] B,>C | (D2 | D)F | Bc | d>e | f2 | df | c>E | Ff | 
dc | B>c | dB | (F2 | F>)z | B,>C | (D2 | D)F | Bc | 
d>e | f2 | df | c>E | Ff | dF | (B2 | B)z || 
M:2/4
[P:B] f>e/d// | ("_ ( Eb>F "c2 | "_ Eb2  )"c2) | e>d/c// | ("_ (  D>Eb  "B2 | "_ D2 )"B2) | F>B | 
DG | F2 | F>c | CG | F2 | f>e/d// | ("_ ( Eb>F "c2 | "_ Eb2  )"c2) | e>d/c// | 
("_ (  D>Eb "B2 | "_ D2 )"B2) | F>B | DG | F2 | F>F/d// dc  | !fermata!B2 || 
M:2/4
[P:C] F2 | f2 | B2 | c>d | (e2 | e)F | fd/c/ | B>c | d2 | D/B/ F/d/ | 
c>d | e2 | E/c/ F/d/ | B>c | de | !fermata!f2 | F2 | f2 | B2 | c>d | (e2 | e) F | 
fd/c/ | B>c | d2 | D/B/ F/d/ | c>d | ef | dF | (B2 | (B2) | B)z |]
W:
%W:Reihenfolge: A - B - A - C
W:notiert Edi Gasser
W:UJV-Naturjodelsammlung: Code-Nr: 36-01
W:http://www.naturjodler.ch/code 36.htm  (with *** AUDIO ***)
%Juni 1, 2018

